X: 24135
T: Longing For Home
R: reel
M: 4/4
K: Amajor
c3B|:A4 ABAE|F4 E2 FA-|A4 Bcef-|fa- a4 af|
[1 e4 c4|B2 A2 Bc F2|E8-|E4 BcBA:|
[2 e4 c4|B2 A2 c3B|A8-|A4 Ac e2||
f4 e2 fa-|a6 af|e4 c4|B2 A6|
f4 e2 fa-|a3b c'bae|f8-|f4 a2 g2|
f4 e2 cA|B6 AB|c3B A2 F2|E6 FA|
A6 Bc|B2 A2 F3A|A8-|HA4 BcBA||

